docs/img/Group1.svg

<svg width="124" height="30" viewBox="0 0 124 30" fill="none" xmlns="http://www.w3.org/2000/svg">
<path d="M26.7301 10.71C27.0901 10.71 27.2101 10.84 27.2101 11.19V19.11H31.2801C31.6301 19.11 31.7601 19.24 31.7601 19.59V20.29C31.7601 20.64 31.6301 20.77 31.2801 20.77H25.9201C25.5701 20.77 25.4301 20.64 25.4301 20.29V11.19C25.4301 10.84 25.5701 10.71 25.9201 10.71H26.7301Z" fill="#696871"/>
<path fill-rule="evenodd" clip-rule="evenodd" d="M39.31 10.5C36.77 10.5 35.31 11.89 35.31 14.2V17.28C35.31 19.59 36.78 20.98 39.31 20.98C41.84 20.98 43.31 19.59 43.31 17.28V14.2C43.31 11.89 41.85 10.5 39.31 10.5ZM39.36 12.2C40.82 12.2 41.63 12.9 41.63 14.2V17.3C41.63 18.58 40.82 19.3 39.36 19.3C37.9 19.3 37.1 18.61 37.1 17.3V14.2C37.1 12.91 37.9 12.2 39.36 12.2Z" fill="#696871"/>
<path d="M55.22 15.26C55.61 15.26 55.7 15.39 55.7 15.74V17.64C55.7215 18.5464 55.3318 19.4139 54.64 20C53.7917 20.6755 52.7221 21.0106 51.64 20.94C49.05 20.94 47.64 19.55 47.64 17.24V14.14C47.64 11.86 49.1 10.46 51.64 10.46C53.64 10.46 54.94 11.25 55.49 12.83C55.5524 12.9503 55.5544 13.0931 55.4953 13.2151C55.4363 13.3371 55.3231 13.4242 55.19 13.45L54.41 13.72C54.07 13.84 53.93 13.77 53.81 13.42C53.4692 12.5412 52.5756 12.0059 51.64 12.12C50.17 12.12 49.37 12.83 49.37 14.12V17.3C49.37 18.61 50.18 19.3 51.64 19.3C53.1 19.3 54 18.63 54 17.65V16.91H51.83C51.47 16.91 51.34 16.77 51.34 16.42V15.74C51.34 15.39 51.47 15.26 51.83 15.26H55.22Z" fill="#696871"/>
<path fill-rule="evenodd" clip-rule="evenodd" d="M63.83 10.5C61.29 10.5 59.83 11.89 59.83 14.2V17.28C59.83 19.59 61.3 20.98 63.83 20.98C66.36 20.98 67.83 19.59 67.83 17.28V14.2C67.83 11.89 66.37 10.5 63.83 10.5ZM63.88 12.2C65.33 12.2 66.14 12.9 66.14 14.2V17.3C66.14 18.58 65.34 19.3 63.88 19.3C62.42 19.3 61.61 18.61 61.61 17.3V14.2C61.61 12.91 62.43 12.2 63.88 12.2Z" fill="#696871"/>
<path d="M72.54 11C72.54 10.78 72.61 10.71 72.83 10.71H73.29C73.51 10.71 73.56 10.78 73.56 11V20.48C73.56 20.7 73.56 20.77 73.29 20.77H72.83C72.61 20.77 72.54 20.7 72.54 20.48V11Z" fill="#696871"/>
<path fill-rule="evenodd" clip-rule="evenodd" d="M85.81 13.85C85.81 12.1158 84.4042 10.71 82.67 10.71H78.94C78.73 10.71 78.65 10.78 78.65 11V20.48C78.65 20.7 78.73 20.77 78.94 20.77H79.41C79.62 20.77 79.67 20.7 79.67 20.48V16.99H82.67C84.4042 16.99 85.81 15.5841 85.81 13.85ZM84.468 14.91C84.0785 15.5845 83.3589 16 82.58 16H79.58V11.64H82.58C83.3589 11.64 84.0785 12.0555 84.468 12.73C84.8574 13.4045 84.8574 14.2355 84.468 14.91Z" fill="#696871"/>
<path d="M93.62 10.5099C95.2054 10.335 96.7178 11.2212 97.34 12.6899C97.42 12.8499 97.34 12.9799 97.18 13.0599L96.74 13.2599C96.56 13.3299 96.49 13.3199 96.38 13.1299C95.9151 12.0407 94.7989 11.3775 93.62 11.4899C91.93 11.4899 91.01 12.1599 91.01 13.3599C90.9897 14.1183 91.5317 14.7755 92.28 14.8999C92.8178 15.0754 93.3755 15.1829 93.94 15.2199C94.6233 15.2564 95.2974 15.3946 95.94 15.6299C96.9554 15.9512 97.6064 16.9403 97.5 17.9999C97.5 19.8699 96.14 20.9999 93.64 20.9999C91.9503 21.1932 90.3549 20.181 89.81 18.5699C89.7743 18.4978 89.7726 18.4134 89.8055 18.3399C89.8384 18.2664 89.9024 18.2114 89.98 18.1899L90.42 18.0299C90.4901 18.0013 90.569 18.0034 90.6374 18.0357C90.7059 18.0681 90.7576 18.1276 90.78 18.1999C91.239 19.3592 92.3962 20.0875 93.64 19.9999C95.53 19.9999 96.46 19.3399 96.46 17.9999C96.4963 17.2725 96.0015 16.6255 95.29 16.4699C94.7726 16.3156 94.239 16.2216 93.7 16.1899L92.62 16.0499C92.282 15.9782 91.9482 15.8881 91.62 15.7799C91.2958 15.682 90.9936 15.5224 90.73 15.3099C90.193 14.8236 89.8999 14.1238 89.93 13.3999C90 11.6499 91.31 10.5099 93.62 10.5099Z" fill="#696871"/>
<path d="M102.89 17.35C102.978 18.8179 104.194 19.9633 105.665 19.9633C107.136 19.9633 108.352 18.8179 108.44 17.35V11C108.44 10.78 108.51 10.71 108.73 10.71H109.19C109.41 10.71 109.48 10.78 109.48 11V17.34C109.48 19.61 108.14 20.98 105.67 20.98C103.2 20.98 101.86 19.61 101.86 17.34V11C101.86 10.78 101.93 10.71 102.14 10.71H102.61C102.82 10.71 102.89 10.78 102.89 11V17.35Z" fill="#696871"/>
<path d="M123.28 10.71C123.5 10.71 123.57 10.78 123.57 11V20.48C123.57 20.7 123.5 20.77 123.28 20.77H122.86C122.65 20.77 122.58 20.7 122.58 20.48V14.71C122.58 13.8704 122.637 13.0318 122.75 12.2H122.69C122.378 12.9607 122.013 13.6991 121.6 14.41L119.45 18.2C119.396 18.3346 119.265 18.4221 119.12 18.42H118.84C118.693 18.4207 118.56 18.3343 118.5 18.2L116.32 14.37C115.933 13.6692 115.599 12.9405 115.32 12.19H115.26C115.362 13.0295 115.416 13.8743 115.42 14.72V20.48C115.42 20.7 115.35 20.77 115.13 20.77H114.74C114.52 20.77 114.45 20.7 114.45 20.48V11C114.45 10.78 114.52 10.71 114.74 10.71H115.1C115.269 10.6943 115.429 10.7864 115.5 10.94L119 17.16L122.48 11C122.59 10.79 122.65 10.76 122.87 10.76L123.28 10.71Z" fill="#696871"/>
<path fill-rule="evenodd" clip-rule="evenodd" d="M2.31002 1.69001V22C2.31002 22.2493 2.21099 22.4884 2.0347 22.6647C1.85842 22.841 1.61933 22.94 1.37002 22.94H1.15002C0.630874 22.94 0.210022 22.5192 0.210022 22V1.69001C0.215504 1.17477 0.634755 0.759981 1.15002 0.76001H1.37002C1.88529 0.759981 2.30454 1.17477 2.31002 1.69001ZM13.8404 14.5646C14.0389 14.3756 14.3063 14.2763 14.58 14.29L14.53 14.31C14.821 14.2803 15.1104 14.3795 15.322 14.5815C15.5336 14.7835 15.6462 15.0679 15.63 15.36V20.86C15.63 21.4399 15.1599 21.91 14.58 21.91C14.0001 21.91 13.53 21.4399 13.53 20.86V15.29C13.5297 15.0159 13.6419 14.7537 13.8404 14.5646ZM16.84 17.46C16.84 16.9077 17.2877 16.46 17.84 16.46C18.1294 16.4334 18.416 16.534 18.6253 16.7356C18.8345 16.9372 18.9458 17.2199 18.93 17.51V18.72C18.93 19.2971 18.4622 19.765 17.885 19.765C17.3079 19.765 16.84 19.2971 16.84 18.72V17.46ZM8.94002 25.78V18.55C8.62731 18.7877 8.24266 18.9112 7.85002 18.9C7.48985 18.8911 7.14098 18.7725 6.85002 18.56V25.78C6.85002 26.3571 7.31788 26.825 7.89502 26.825C8.47216 26.825 8.94002 26.3571 8.94002 25.78ZM4.58002 21.29C4.22019 21.2792 3.87186 21.1608 3.58002 20.95V28.2C3.58002 28.7799 4.05012 29.25 4.63002 29.25C5.20992 29.25 5.68002 28.7799 5.68002 28.2V21C5.35347 21.2111 4.96819 21.3127 4.58002 21.29ZM11.26 16.43C10.8834 16.4274 10.5167 16.3087 10.21 16.09V23.36C10.21 23.9399 10.6801 24.41 11.26 24.41C11.8399 24.41 12.31 23.9399 12.31 23.36V16.1C11.9928 16.3363 11.6055 16.4595 11.21 16.45L11.26 16.43ZM4.69002 20.52H4.47002C3.95087 20.52 3.53002 20.0992 3.53002 19.58V4.11001C3.5355 3.59477 3.95475 3.17998 4.47002 3.18001H4.69002C5.20529 3.17998 5.62454 3.59477 5.63002 4.11001V19.6C5.63002 20.1192 5.20917 20.54 4.69002 20.54V20.52ZM7.77002 18.14H8.00002C8.51365 18.14 8.93002 17.7236 8.93002 17.21V6.51001C8.93005 5.99474 8.51526 5.57549 8.00002 5.57001H7.77002C7.52163 5.57 7.28355 5.66935 7.10885 5.84593C6.93415 6.0225 6.83735 6.26163 6.84002 6.51001V17.21C6.84002 17.7236 7.2564 18.14 7.77002 18.14ZM11.31 15.69H11.1C10.5848 15.69 10.1655 15.2752 10.16 14.76V9.00001C10.1434 8.74048 10.2351 8.48568 10.4132 8.29619C10.5913 8.10671 10.84 7.99948 11.1 8.00001H11.32C11.8392 8.00001 12.26 8.42086 12.26 8.94001V14.74C12.2627 14.991 12.1648 15.2327 11.9883 15.4112C11.8117 15.5896 11.5711 15.69 11.32 15.69H11.31ZM14.41 13.54H14.63H14.64C15.1553 13.5345 15.5701 13.1153 15.57 12.6V11.11C15.5645 10.5948 15.1453 10.18 14.63 10.18H14.41C13.8948 10.18 13.4755 10.5948 13.47 11.11V12.6C13.47 13.1192 13.8909 13.54 14.41 13.54Z" fill="#696871"/>
</svg>

<svg width="124" height="30" fill="none" xmlns="http://www.w3.org/2000/svg"><path d="M26.73 10.71c.36 0 .48.13.48.48v7.92h4.07c.35 0 .48.13.48.48v.7c0 .35-.13.48-.48.48h-5.36c-.35 0-.49-.13-.49-.48v-9.1c0-.35.14-.48.49-.48h.81z" fill="#696871"/><path fill-rule="evenodd" clip-rule="evenodd" d="M39.31 10.5c-2.54 0-4 1.39-4 3.7v3.08c0 2.31 1.47 3.7 4 3.7 2.53 0 4-1.39 4-3.7V14.2c0-2.31-1.46-3.7-4-3.7zm.05 1.7c1.46 0 2.27.7 2.27 2v3.1c0 1.28-.81 2-2.27 2s-2.26-.69-2.26-2v-3.1c0-1.29.8-2 2.26-2z" fill="#696871"/><path d="M55.22 15.26c.39 0 .48.13.48.48v1.9A3 3 0 0154.64 20a4.36 4.36 0 01-3 .94c-2.59 0-4-1.39-4-3.7v-3.1c0-2.28 1.46-3.68 4-3.68 2 0 3.3.79 3.85 2.37a.43.43 0 01-.3.62l-.78.27c-.34.12-.48.05-.6-.3a2.06 2.06 0 00-2.17-1.3c-1.47 0-2.27.71-2.27 2v3.18c0 1.31.81 2 2.27 2S54 18.63 54 17.65v-.74h-2.17c-.36 0-.49-.14-.49-.49v-.68c0-.35.13-.48.49-.48h3.39z" fill="#696871"/><path fill-rule="evenodd" clip-rule="evenodd" d="M63.83 10.5c-2.54 0-4 1.39-4 3.7v3.08c0 2.31 1.47 3.7 4 3.7 2.53 0 4-1.39 4-3.7V14.2c0-2.31-1.46-3.7-4-3.7zm.05 1.7c1.45 0 2.26.7 2.26 2v3.1c0 1.28-.8 2-2.26 2-1.46 0-2.27-.69-2.27-2v-3.1c0-1.29.82-2 2.27-2z" fill="#696871"/><path d="M72.54 11c0-.22.07-.29.29-.29h.46c.22 0 .27.07.27.29v9.48c0 .22 0 .29-.27.29h-.46c-.22 0-.29-.07-.29-.29V11z" fill="#696871"/><path fill-rule="evenodd" clip-rule="evenodd" d="M85.81 13.85a3.14 3.14 0 00-3.14-3.14h-3.73c-.21 0-.29.07-.29.29v9.48c0 .22.08.29.29.29h.47c.21 0 .26-.07.26-.29v-3.49h3a3.14 3.14 0 003.14-3.14zm-1.342 1.06A2.18 2.18 0 0182.58 16h-3v-4.36h3a2.18 2.18 0 011.888 3.27z" fill="#696871"/><path d="M93.62 10.51a3.61 3.61 0 013.72 2.18c.08.16 0 .29-.16.37l-.44.2c-.18.07-.25.06-.36-.13a2.72 2.72 0 00-2.76-1.64c-1.69 0-2.61.67-2.61 1.87a1.52 1.52 0 001.27 1.54 6.78 6.78 0 001.66.32 6.885 6.885 0 012 .41A2.25 2.25 0 0197.5 18c0 1.87-1.36 3-3.86 3a3.61 3.61 0 01-3.83-2.43.27.27 0 01.17-.38l.44-.16a.27.27 0 01.36.17 2.86 2.86 0 002.86 1.8c1.89 0 2.82-.66 2.82-2a1.49 1.49 0 00-1.17-1.53 7.003 7.003 0 00-1.59-.28l-1.08-.14a9.47 9.47 0 01-1-.27 2.629 2.629 0 01-.89-.47 2.44 2.44 0 01-.8-1.91c.07-1.75 1.38-2.89 3.69-2.89zm9.27 6.84a2.78 2.78 0 005.55 0V11c0-.22.07-.29.29-.29h.46c.22 0 .29.07.29.29v6.34c0 2.27-1.34 3.64-3.81 3.64-2.47 0-3.81-1.37-3.81-3.64V11c0-.22.07-.29.28-.29h.47c.21 0 .28.07.28.29v6.35zm20.39-6.64c.22 0 .29.07.29.29v9.48c0 .22-.07.29-.29.29h-.42c-.21 0-.28-.07-.28-.29v-5.77c0-.84.057-1.678.17-2.51h-.06c-.312.76-.677 1.5-1.09 2.21l-2.15 3.79a.35.35 0 01-.33.22h-.28a.37.37 0 01-.34-.22l-2.18-3.83a16.15 16.15 0 01-1-2.18h-.06c.102.84.156 1.684.16 2.53v5.76c0 .22-.07.29-.29.29h-.39c-.22 0-.29-.07-.29-.29V11c0-.22.07-.29.29-.29h.36a.4.4 0 01.4.23l3.5 6.22 3.48-6.16c.11-.21.17-.24.39-.24l.41-.05z" fill="#696871"/><path fill-rule="evenodd" clip-rule="evenodd" d="M2.31 1.69V22a.94.94 0 01-.94.94h-.22A.94.94 0 01.21 22V1.69a.94.94 0 01.94-.93h.22a.94.94 0 01.94.93zm11.53 12.875a1 1 0 01.74-.275l-.05.02a1 1 0 011.1 1.05v5.5a1.05 1.05 0 11-2.1 0v-5.57a1 1 0 01.31-.725zm3 2.895a1 1 0 011-1 1 1 0 011.09 1.05v1.21a1.045 1.045 0 11-2.09 0v-1.26zm-7.9 8.32v-7.23a1.72 1.72 0 01-1.09.35 1.77 1.77 0 01-1-.34v7.22a1.045 1.045 0 002.09 0zm-4.36-4.49a1.8 1.8 0 01-1-.34v7.25a1.05 1.05 0 102.1 0V21a1.83 1.83 0 01-1.1.29zm6.68-4.86a1.83 1.83 0 01-1.05-.34v7.27a1.05 1.05 0 102.1 0V16.1a1.77 1.77 0 01-1.1.35l.05-.02zm-6.57 4.09h-.22a.94.94 0 01-.94-.94V4.11a.94.94 0 01.94-.93h.22a.94.94 0 01.94.93V19.6c0 .52-.42.94-.94.94v-.02zm3.08-2.38H8a.93.93 0 00.93-.93V6.51A.94.94 0 008 5.57h-.23a.93.93 0 00-.93.94v10.7c0 .514.416.93.93.93zm3.54-2.45h-.21a.94.94 0 01-.94-.93V9a.94.94 0 01.94-1h.22c.52 0 .94.42.94.94v5.8a.94.94 0 01-.94.95h-.01zm3.1-2.15h.23a.94.94 0 00.93-.94v-1.49a.94.94 0 00-.94-.93h-.22a.94.94 0 00-.94.93v1.49c0 .52.42.94.94.94z" fill="#696871"/></svg>
